X: 402
T:Blote'r gorllewin (flowers of the west)
R:march
Z:ceri rhys matthews
M:4/4
L:1/4
Q:1/4=200
K:Em
G/F/|EGEG|EGFE|EAFE|D3E/F/|
G3A/4G/4F/4G/4|A3B/4A/4G/4A/34|BBGF|E2-E:||
d|BGA/B/c/A/|BG2d|BGA/B/c/A/|BG2B/c/|
d-d/e/dc/B/|cAzB|d-d/e/dc/B/|cAzB|e3d/c/|d3c/B/|cBAG|BA2B|
dedc|BABc|d2GF/E/|D3D|G2A/G/F/G/|A2B/A/G/A/|BEGF|E3:||
<end>
<start>
